X:1
T:Psalm 11. O Heer wilt myn behouwen
T:Cornelis Boscoop, 1531 - 1621
T:Psalm 11. O Heer wilt myn behouwen
T:(C) Wim Looyestijn - 2005/2015
T:(C) Wim Looyestijn - 2005/2015
T:(C) Wim Looyestijn - 2005/2015
T:(C) Wim Looyestijn - 2005/2015
T:(C) Wim Looyestijn - 2005/2015
T:(C) Wim Looyestijn - 2005/2015
T:(C) Wim Looyestijn - 2005/2015
C:Cornelis Boscoop, 1531 - 1621
Z:(C) Wim Looyestijn - 2005/2015
%%score [ 1 2 3 4 ]
L:1/8
Q:1/4=180
M:4/2
K:C
V:1 treble nm="Sopraan" snm="S"
V:2 treble nm="Alt" snm="A"
V:3 treble-8 nm="Tenor" snm="T"
V:4 bass nm="Bas" snm="B"
V:1
 z16 | G8 d4 d4 | B4 B4 c8 | d8 z4 e4 | d4 c4 B6 AG | A4 A4 G8- | G16- | G8 z8 | G8 d4 d4 | %9
w: |O Heer wilt|myn be- hou-|wen, die|hey- li- ge * *|is ver- gaen,|||O Heer wilt|
 B4 B4 c8 | d16 | z4 e4 d4 c4 | B4 d6 c2 c4- | c4 B4 c4 A4 | G8 z4 e4 | d4 d2 c2 B4 c4 | %16
w: myn be- hou-|wen,|die hey- li-|ge is * ver-|* * gaen, ver-|gaen, die|hey- li- ge is ver-|
 A8 D4 G4- | G4 ^F4 G8 | z4 z4 z4 G4 | d4 d4 B4 B4 | c8 d4 d4 | e4 e2 d2 c4 B4 | A8 G8- | G16- | %24
w: gaen, is ver-|* * gaen,|die|waer- hey- den ver-|cou- wen zy|wor- den te niet *|ge- daen,||
 G8 z8 | G8 d4 d4 | B4 B4 c8 | d16 | z4 e4 d4 c4 | B4 d6 c2 c4- | c4 B4 c4 A4 | G8 z4 e4 | %32
w: |die waer- hey-|den ver- cou-|wen|zy wor- den|te niet * ge-|* * daen, ge-|daen, zy|
 d4 d2 c2 B4 c4 | A8 D4 G4- | G4 ^F4 G8 | z4 G4 A6 B2 | c6 BA B4 G4 | A4 B4 c4 d4 | c4 B4 A6 B2 | %39
w: wor- den te niet ge-|daen, te niet|* ge- daen:|al van der|men- * * schen al|van der men- schen|kin- dren boos *|
 c8 z8 | z4 G4 A4 B4 | c4 d4 c4 B4 | A2 G2 A2 B2 c8- | c4 B4 A4 G4 | G4 ^F4 G8 | A16 | z8 d8 | %47
w: |al van der|men- schen kin- dren|boos * * * *|* seer wei- nich|v be- trou-|wen,|seer|
 e4 d4 B4 d4 | c4 A4 c4 B4 | G4 B8 A4- | A2 G2 G8 ^F4 | G16 | z4 d4 e8- | e4 d4 B4 d4 | %54
w: wei- nich hier al-|toes, seer wei- nich|hier al- toes,|* * hier al-|toes,|seer wei-|* nich hier al-|
 c4 A4 c4 B4 | G4 B8 A4- | A2 G2 G8 ^F4 | G16- | G16- | G16- | G16 |] %61
w: toes, seer wei- nich|hier al- toes,|* * hier al-|toes.||||
V:2
 C8 G4 G4 | E4 E4 F8 | G8 z4 A4 | G4 G2 F2 E2 F2 G2 E2 | F2 G2 A6 G2 G4- | G4 ^F4 G4 D4 | %6
w: O Heer wilt|myn be- hou-|wen, die|hey- li- ge is * * *|* * * * ver-|* * gaen, die|
 E4 E2 E2 D2 C2 B,2 A,2 | G,4 G4 F6 E2 | D4 G8 ^F4 | G2 F2 E2 D2 C4 E4 | D8 z4 B,4 | %11
w: hey- li- ge is * ver- *|gaen, die hey- li-|ge is ver-|gaen, * * * is ver-|gaen, die|
 C4 B,4 A,4 A4 | G4 G2 F2 E4 C4 | G12 F2 E2 | D4 D4 E2 F2 G2 E2 | F2 G2 A6 G2 G4- | G4 ^F4 G4 E4 | %17
w: hey- li- ge die|hey- li- ge is ver-|gaen, * *|is ver- gaen, * * *|is * * * ver-|* * gaen, ver-|
 D8 D8 | G4 G4 E4 E4 | F8 G8 | z4 G4 F4 D2 D2 | G6 F2 E4 D2 C2 | D4 A,4 D4 D4 | %23
w: gaen, die|waer- hey- den ver-|cou- wen|zy wor- den te|niet ge- daen, te *|niet ge- daen, te|
 E4 E4 D2 C2 B,2 A,2 | G,4 G4 F6 E2 | D4 G8 ^F4 | G2 F2 E2 D2 C4 E4 | D8 z4 B,4 | C4 B,4 A,4 A4 | %29
w: niet ge- daen, * * *|* zy wor- den|te niet ge-|daen, * te * niet ge-|daen, te|niet ge- daen, zy|
 G4 G2 F2 E4 C4 | G12 F2 E2 | D4 D4 E2 F2 G2 E2 | F2 G2 A6 G2 G4- | G4 ^F4 G4 E4 | D8 D4 D2 E2 | %35
w: wor- den te niet ge-|daen, te *|niet ge- daen, * * *|* * te * niet|* ge- daen, ge-|daen: al van der|
 F4 D4 F4 F4 | E4 C4 D4 E4 | F4 G4 E2 E2 D2 G2- | G2 ^F2 G4 z4 D4 | E6 F2 G6 F2 | E4 D4 F4 F4 | %41
w: men- schen kin- dren|boos al van der|men- schen kin- dren boos kin-|* dren boos al|van der men- schen|kin- dren boos der|
 G4 A4 A4 G4- | G4 ^F4 G4 G4 | G6 F2 E4 D4 | E4 D2 C2 D4 D4 | E4 C4 F4 F4 | E8 D4 F4 | G12 F4 | %48
w: men- schen kin- *|* dren boos seer|wei- nich v be-|trou- * * wen, seer|wei- nich v be-|trou- wen, seer|wei- nich|
 A6 G2 E4 G4 | G6 F2 D4 F4 | F4 C4 D6 C2 | B,4 D4 G,4 E4 | E4 D4 C2 D2 E2 F2 | G4 G4 G4 F4 | %54
w: hier al- toes, seer|wei- nich hier al-|toes, seer wei- nich|hier al- toes, seer|wei- nich hier * al- *|toes, seer wei- nich|
 A6 G2 E4 G4 | G6 F2 D4 F4 | F4 C4 D6 C2 | B,2 A,2 B,4 G,4 B,4 | E4 D4 E4 E4 | D16- | D16 |] %61
w: hier al- toes, seer|wei- nich hier al-|toes, seer wei- nich|hier * al- toes, seer|wei- nich hier al-|toes.||
V:3
 z16 | z16 | z16 | z16 | z8 G8 | d4 d4 B4 B4 | c8 d8 | z4 e4 d4 c4 | B6 AG A4 A4 | G4 g4 e4 g4- | %10
w: ||||O|Heer wilt myn be-|hou- wen,|die hey- li-|ge * * is ver-|gaen, die hey- li-|
 g4 ^f4 g8- | g4 g4 f6 e2 | d2 c2 B4 c4 e4 | e4 d6 c2 c4- | c4 B4 c8 | A8 z4 e4 | d4 d2 c2 B4 c4 | %17
w: * ge is|* ver- gaen, *|* * * die hey-|li- ge * is|* ver- gaen,|* die|hey- li- ge is ver-|
 A8 G6 A2 | B2 c2 d2 B2 c2 B2 B2 AG | A4 A4 G4 G4 | A4 c8 B4 | c8 z4 G4 | d4 d4 B4 B4 | c8 d8 | %24
w: gaen, is *||* ver- gaen, die|waer- hey- *|den die|waer- hey- den ver-|cou- wen|
 z4 e4 d4 c4 | B6 AG A4 A4 | G4 g4 e4 g4- | g4 ^f4 g8- | g4 g4 f6 e2 | d2 c2 B4 c4 e4 | %30
w: zy wor- den|te * * niet ge-|daen, te niet *|* ge- daen,|* te niet *|* * ge- daen, zy|
 e4 d6 c2 c4- | c4 B4 c8 | A8 z4 e4 | d6 c2 B4 c4 | A8 G4 G4 | A4 B4 c4 d4 | c2 d2 e2 f2 g8 | %37
w: wor- den te niet|* ge- daen,|* zy|wor- den te niet|ge- daen: al|van der men- schen|kin- * dren * boos|
 z4 G4 A4 B4 | c4 d4 e4 f4 | g8 G8 | A4 B4 c4 d4 | e4 f6 e2 d2 c2 | d4 d4 e8- | e4 d4 c4 B4 | %44
w: al van der|men- schen kin- dren|boos al|van der men- schen|kin- dren * * *|boos seer wei-|* nich v be-|
 A8 G4 G4 | c4 e6 d2 d4- | d4 ^c4 d8 | z4 d4 e4 d4 | f6 e2 c4 d4 | e4 d4 B4 d4 | %50
w: trou- wen, seer|wei- nich v be-|* trou- wen,|seer wei- nich|hier al- toes, seer|wei- nich hier al-|
 c2 B2 A2 G2 A4 A4 | G2 A2 B2 c2 d4 c4- | c4 B4 c6 BA | G4 d4 e4 d4 | f6 e2 c4 d4 | e4 d4 B4 d4 | %56
w: toes, * seer * wei- nich|hier * al- * toes, hier|* al- toes, * *|* seer wei- nich|hier al- toes, seer|wei- nich hier al-|
 c2 B2 A2 G2 A4 A4 | G4 d4 e4 d4 | c4 B4 c8- | c4 B2 A2 B8- | B16 |] %61
w: toes, * seer * wei- nich|hier seer wei- nich|hier al- toes.|||
V:4
 z16 | z16 | z16 | z16 | z16 | D,8 G,8 | z4 C,4 G,4 G,4 | E,4 E,4 F,8 | G,6 F,E, D,8 | z16 | %10
w: |||||O *|O Heer wilt|myn be- hou-|wen, * * *||
 D,8 G,4 G,4 | E,4 E,4 F,8 | G,8 A,8 | G,4 G,2 F,2 E,4 F,4 | G,8 C,8 | D,4 D,2 D,2 E,4 C,4 | %16
w: O Heer wilt|myn be- hou-|wen, die|hey- li- ge is ver-|gaen, die|hey- li- ge is ver-|
 D,4 D,4 G,4 C,2 C,2 | D,4 D,4 G,,4 G,4 | G,4 G,4 C,4 E,4 | D,2 E,2 F,2 D,2 E,2 F,2 G,4 | %20
w: gaen, die hey- li- ge|is ver- gaen, die|waer- hey- den ver-|cou- * * * * * *|
 F,4 E,4 D,8 | C,4 C,2 D,2 E,2 F,2 G,4- | G,4 ^F,4 G,8 | z4 C,4 G,4 G,4 | E,4 E,4 F,8 | %25
w: wen ver- cou-|wen ver- * * * cou-|* * wen|die waer- hey-|den ver- cou-|
 G,6 F,E, D,8 | z16 | D,8 G,4 G,4 | E,4 E,4 F,8 | G,8 A,8 | G,4 G,2 F,2 E,4 F,4 | G,8 C,8 | %32
w: wen * * *||die waer- hey-|den ver- cou-|wen zy|wor- den te niet ge-|daen, zy|
 D,4 D,2 D,2 E,4 C,4 | D,4 D,4 G,4 C,2 C,2 | D,4 D,4 G,,8 | z4 G,4 F,4 D,4 | A,8 G,8 | %37
w: wor- den te niet ge-|daen, zy wor- den te|niet ge- daen:|al van der|men- schen|
 z4 z4 z4 G,4 | A,4 B,4 C4 D4- | D2 C2 C8 B,4 | C4 G,4 F,4 F,4 | E,4 D,4 F,4 G,4 | %42
w: al|van der men- schen|* * kin- dren|boos al van der|men- schen kin- dren|
 D,8 C,2 D,2 E,2 F,2 | G,8 z4 G,4 | C12 B,4 | A,6 G,2 F,4 D,2 D,2 | A,8 D,4 D4 | %47
w: boos kin- * dren *|boos seer|wei- nich|v be- trou- wen, be-|trou- wen, seer|
 C4 B,2 A,2 G,4 _B,4 | A,4 F,4 A,4 G,4 | E,4 G,6 F,2 D,2 E,2 | F,4 E,4 D,8 | z4 G,4 B,4 C4 | %52
w: wei- nich * hier al-|toes, seer wei- nich|hier al- * * *|toes, al- toes,|seer wei- nich|
 G,4 G,4 C,4 C4 | C4 B,2 A,2 G,4 _B,4 | A,4 F,4 A,4 G,4 | E,4 G,6 F,2 D,2 E,2 | F,4 E,4 D,8 | %57
w: hier al- toes, seer|wei- nich * hier al-|toes, seer wei- nich|hier al- * * *|toes, al- toes,|
 z4 G,4 E,4 G,4 | E,2 C,2 G,4 C,2 D,2 E,2 F,2 | G,16- | G,16 |] %61
w: seer wei- nich|hier * al- toes. * * *|||

